brandFactory_export/1.Light/Fuera de servicio _1Light.svg

<?xml version="1.0" encoding="UTF-8"?>
<svg width="24px" height="24px" viewBox="0 0 24 24" version="1.1" xmlns="http://www.w3.org/2000/svg" xmlns:xlink="http://www.w3.org/1999/xlink">
    <title>1.Light/Fuera de servicio _1Light</title>
    <g id="Symbols" stroke="none" stroke-width="1" fill="none" fill-rule="evenodd">
        <g id="1.Light/Fuera-de-servicio-_1Light" fill="#5CB615" fill-rule="nonzero">
            <path d="M22.2655462,20.1411765 C22.5142857,19.7781513 23.0386555,18.6991597 22.0571429,16.8403361 C20.7260504,14.2991597 18.1915966,14.1142857 18.0806723,14.107563 C17.9092437,14.0941176 17.7546218,13.9966387 17.6705882,13.8453782 C17.5798319,13.6739496 15.2672269,9.60672269 9.58991597,9.60672269 C6.75630252,9.60672269 4.82352941,10.9680672 3.6907563,12.107563 C1.94957983,13.8756303 1.0487395,16.1747899 1.05546218,17.5260504 C0.994957983,18.7260504 1.08571429,19.6436975 1.15630252,20.1378151 L3.0487395,20.1378151 C3.23697479,18.5848739 4.3092437,17.6369748 5.97310924,17.6369748 C7.62689076,17.6369748 8.70588235,18.5848739 8.89747899,20.1378151 L13.5226891,20.1378151 C13.7142857,18.594958 14.7831933,17.6470588 16.4369748,17.6470588 C18.1008403,17.6470588 19.1697479,18.5983193 19.3613445,20.1378151 C19.3613445,20.1411765 22.2655462,20.1411765 22.2655462,20.1411765 Z M16.4369748,22.6151261 C17.7277311,22.6151261 18.4,21.9294118 18.4,20.6352941 C18.4,19.3445378 17.7310924,18.6588235 16.4369748,18.6588235 C15.1529412,18.6588235 14.4840336,19.3445378 14.4840336,20.6386555 C14.4840336,21.9294118 15.1563025,22.6151261 16.4369748,22.6151261 Z M5.97310924,22.605042 C7.25378151,22.605042 7.93613445,21.9193277 7.93613445,20.6252101 C7.93613445,19.3310924 7.25714286,18.6487395 5.97310924,18.6487395 C4.69243697,18.6487395 4.01008403,19.3344538 4.01008403,20.6252101 C4.01008403,21.9159664 4.69243697,22.605042 5.97310924,22.605042 Z M15.307563,1.00840336 C10.4403361,1.00840336 7.96638655,3.49243697 7.96638655,8.40672269 C7.96638655,8.52773109 7.97647059,8.63865546 7.97647059,8.74957983 C8.50756303,8.65210084 9.0487395,8.60168067 9.58991597,8.59831933 C15.1462185,8.59831933 17.8016807,12.1680672 18.410084,13.1294118 C18.8537815,13.189916 19.7747899,13.4117647 20.7361345,13.9966387 C22.0067227,12.7764706 22.6588235,10.8907563 22.6588235,8.40672269 C22.6554622,3.49243697 20.1815126,1.00840336 15.307563,1.00840336 Z M21.5563025,14.6016807 C22.1176471,15.1058824 22.5882353,15.7042017 22.9478992,16.3663866 C24.5176471,19.3647059 22.9176471,20.9478992 22.8470588,21.0084034 C22.7563025,21.0991597 22.6352941,21.1495798 22.507563,21.1495798 L19.3613445,21.1495798 C19.1697479,22.6857143 18.087395,23.6235294 16.4369748,23.6235294 C14.7932773,23.6235294 13.7142857,22.6857143 13.5226891,21.1495798 L8.89747899,21.1495798 C8.69579832,22.692437 7.64705882,23.6134454 5.97310924,23.6134454 C4.29915966,23.6134454 3.24033613,22.6957983 3.0487395,21.1495798 L0.72605042,21.1495798 C0.494117647,21.1495798 0.292436975,20.9848739 0.245378151,20.7563025 C0.225210084,20.7058824 -0.043697479,19.4352941 0.0537815126,17.5092437 C0.043697479,16.0235294 0.957983193,13.4521008 2.97815126,11.405042 C3.86218487,10.5176471 5.19327731,9.5092437 6.98487395,8.98487395 C6.97478992,8.79327731 6.96470588,8.60168067 6.96470588,8.41008403 C6.96470588,2.90756303 9.8487395,0 15.307563,0 C20.7630252,0 23.6571429,2.90756303 23.6571429,8.40672269 C23.6571429,11.0991597 22.9378151,13.1798319 21.5563025,14.6016807 Z M17.707563,9.44537815 C17.6134454,9.54285714 17.4823529,9.59663866 17.3478992,9.59663866 C17.2168067,9.59327731 17.0890756,9.5394958 16.994958,9.44537815 L14.8840336,7.31764706 C14.7865546,7.22352941 14.7294118,7.08907563 14.7327731,6.95462185 L14.7327731,4.06722689 C14.7327731,3.78487395 14.9546218,3.56302521 15.2336134,3.56302521 C15.5159664,3.56302521 15.7344538,3.78487395 15.7344538,4.06722689 L15.7344538,6.75294118 L17.707563,8.73277311 C17.8991597,8.93109244 17.8991597,9.24369748 17.707563,9.44537815 L17.707563,9.44537815 Z" id="Fuera-de-servicio-_1Light"></path>
        </g>
    </g>
</svg>

<svg width="24" height="24" viewBox="0 0 24 24" xmlns="http://www.w3.org/2000/svg"><path d="M22.266 20.141c.248-.363.773-1.442-.209-3.3-1.33-2.542-3.865-2.727-3.976-2.733a.515.515 0 01-.41-.263c-.091-.171-2.404-4.238-8.081-4.238-2.834 0-4.766 1.361-5.9 2.5-1.74 1.769-2.641 4.068-2.635 5.42-.06 1.2.03 2.117.101 2.61H3.05c.188-1.552 1.26-2.5 2.924-2.5 1.654 0 2.733.948 2.924 2.5h4.626c.191-1.542 1.26-2.49 2.914-2.49 1.664 0 2.733.951 2.924 2.49 0 .004 2.905.004 2.905.004zm-5.829 2.474c1.29 0 1.963-.686 1.963-1.98 0-1.29-.669-1.976-1.963-1.976-1.284 0-1.953.686-1.953 1.98 0 1.29.672 1.976 1.953 1.976zm-10.464-.01c1.28 0 1.963-.686 1.963-1.98s-.679-1.976-1.963-1.976c-1.28 0-1.963.685-1.963 1.976s.682 1.98 1.963 1.98zm9.335-21.597c-4.868 0-7.342 2.484-7.342 7.399 0 .12.01.232.01.343a9.266 9.266 0 011.614-.152c5.556 0 8.212 3.57 8.82 4.531.444.06 1.365.283 2.326.868 1.27-1.22 1.923-3.106 1.923-5.59-.004-4.915-2.477-7.399-7.351-7.399zm6.248 13.594a6.62 6.62 0 011.392 1.764c1.57 2.999-.03 4.582-.1 4.642a.478.478 0 01-.34.142H19.36c-.191 1.536-1.274 2.474-2.924 2.474-1.644 0-2.723-.938-2.914-2.474H8.897c-.201 1.542-1.25 2.463-2.924 2.463S3.24 22.696 3.05 21.15H.726a.492.492 0 01-.48-.394c-.02-.05-.29-1.32-.192-3.247-.01-1.485.904-4.057 2.924-6.104.884-.887 2.215-1.896 4.007-2.42-.01-.192-.02-.383-.02-.575C6.965 2.908 9.849 0 15.308 0c5.455 0 8.35 2.908 8.35 8.407 0 2.692-.72 4.773-2.102 6.195zm-3.848-5.157a.5.5 0 01-.36.152.52.52 0 01-.353-.152l-2.111-2.127a.495.495 0 01-.151-.363V4.067c0-.282.222-.504.5-.504.283 0 .501.222.501.504v2.686l1.974 1.98a.514.514 0 010 .712z" fill="#5CB615" fill-rule="nonzero"/></svg>
